!! 00000] TT[WS
!!!OTL: Zaihe gege zuo yizheng
!!!ARE: Asia, China, Shanxi Hequ
!! Ethnic Group: Han
!! WII, 26 (2)
!!!SCT: J0434
!!!YEM: Copyright 1995, estate of Helmut Schaffrath.
**kern
*ICvox
*Ivox
*M2/4
*k[f#c#]
*D:
{8ee
8b
4ee
=1
8b
8ee
8b
16a
16a
=2
8g
8e
8a
8b
=3
2e}
=4
{8ee
8b
4ee
=5
8b
8ee
8b
16a
16a
=6
8g
8e
8a
8b
=7
2a}
==
!!!AGN: Shange, Shanqu. Qingge
!!!ONB: ESAC (Essen Associative Code) Database: CHINA
!!!AMT: simple duple
!!!AIN: vox
!!!EED: Helmut Schaffrath
!!!EEV: 1.0
*-
